X: 20283
T: WALTZ BY WELCH
C:
%R: waltz
B: Elias Howe "The Musician's Companion" 1843 p.23 #3
S: http://imslp.org/wiki/The_Musician's_Companion_(Howe,_Elias)
Z: 2015 John Chambers <jc:trillian.mit.edu>
M: 3/4
L: 1/8
K: F
% - - - - - - - - - - - - - - - - - - - - - - - - -
G, |\
C2c=Bc2 |  C2c=Bc2 | C2BAB2 | AFGABc |\
d2dcd2 | c2d2B2 | A2B2G2 | F3 z2 :|
|: G/F/ |\
EFGAG2 | AG^FAG2 | AG^FGAB | c3zcB |\
AcFACF | A,CFAcA | GBEGCE | F3 z2 :|
|: F/G/ |\
(cA).A.A.A.A | A2z2fe | (ed).d.d.d.d | d2z2BA |\
(Ac).c.c.c.c | c3ABG | (AF).F.F.F.F | F3 z2 :|
% - - - - - - - - - - - - - - - - - - - - - - - - -

%%sep 1 1 500

